icons/add-user-24.svg

<svg width="24" height="24" viewBox="0 0 24 24" fill="none" xmlns="http://www.w3.org/2000/svg">
<path fill-rule="evenodd" clip-rule="evenodd" d="M19.25 1C19.6642 1 20 1.33579 20 1.75V4H22.25C22.6642 4 23 4.33579 23 4.75C23 5.16421 22.6642 5.5 22.25 5.5H20V7.75C20 8.16421 19.6642 8.5 19.25 8.5C18.8358 8.5 18.5 8.16421 18.5 7.75V5.5H16.25C15.8358 5.5 15.5 5.16421 15.5 4.75C15.5 4.33579 15.8358 4 16.25 4H18.5V1.75C18.5 1.33579 18.8358 1 19.25 1ZM9.00006 6C7.06711 6 5.50013 7.56699 5.50013 9.5C5.50013 11.433 7.06711 13 9.00006 13C10.933 13 12.5 11.433 12.5 9.5C12.5 7.56699 10.933 6 9.00006 6ZM4.00013 9.5C4.00013 6.73859 6.23866 4.5 9.00006 4.5C11.7615 4.5 14 6.73859 14 9.5C14 11.1734 13.1779 12.6548 11.9156 13.5624C14.7874 14.7059 16.8374 17.4714 16.9343 20.7277C16.9467 21.1417 16.621 21.4873 16.207 21.4997C15.7929 21.512 15.4473 21.1863 15.435 20.7723C15.3314 17.2908 12.4761 14.5 8.96917 14.5C5.46228 14.5 2.60695 17.2908 2.50334 20.7723C2.49101 21.1863 2.14539 21.512 1.73136 21.4997C1.31733 21.4873 0.991678 21.1417 1.004 20.7277C1.10137 17.4563 3.16993 14.6803 6.06271 13.5466C4.81273 12.6377 4.00013 11.1638 4.00013 9.5Z" fill="black"/>
</svg>

<svg xmlns="http://www.w3.org/2000/svg" width="24" height="24" viewBox="0 0 24 24"><path fill-rule="evenodd" d="M19.25 1a.75.75 0 01.75.75V4h2.25a.75.75 0 010 1.5H20v2.25a.75.75 0 01-1.5 0V5.5h-2.25a.75.75 0 010-1.5h2.25V1.75a.75.75 0 01.75-.75zM9 6a3.5 3.5 0 100 7 3.5 3.5 0 000-7zM4 9.5a5 5 0 117.916 4.062 7.973 7.973 0 015.018 7.166.75.75 0 11-1.499.044 6.469 6.469 0 00-12.932 0 .75.75 0 01-1.499-.044 7.973 7.973 0 015.059-7.181A4.993 4.993 0 014 9.5z"/></svg>
